source/img/index/icon-money.svg

<svg width="47" height="27" viewBox="0 0 47 27" fill="none" xmlns="http://www.w3.org/2000/svg">
<path d="M43.0665 0H3.93347C1.71459 0 0 1.68132 0 3.85714V23.1429C0 25.3187 1.71459 27 3.93347 27H43.0665C45.2854 27 47 25.3187 47 23.1429V3.85714C47 1.78022 45.1845 0 43.0665 0ZM3.02575 24.7253V2.76923H43.5708V24.7253H3.02575Z" fill="#63D1BB"/>
<path d="M6.95925 20.8683H39.6374V6.62659H6.95925V20.8683ZM23.5 8.50571C26.4249 8.50571 28.8455 10.8793 28.8455 13.7475C28.8455 16.6156 26.4249 18.9892 23.5 18.9892C20.5751 18.9892 18.1545 16.6156 18.1545 13.7475C18.1545 10.7804 20.5751 8.50571 23.5 8.50571Z" fill="#63D1BB"/>
</svg>

<svg width="47" height="27" viewBox="0 0 47 27" fill="none" xmlns="http://www.w3.org/2000/svg"><path d="M43.066 0H3.933C1.715 0 0 1.681 0 3.857v19.286C0 25.319 1.715 27 3.933 27h39.133C45.286 27 47 25.319 47 23.143V3.857C47 1.78 45.184 0 43.066 0ZM3.026 24.725V2.77H43.57v21.956H3.026Z" fill="#63D1BB"/><path d="M6.96 20.868h32.677V6.627H6.96v14.241ZM23.5 8.506c2.925 0 5.346 2.373 5.346 5.242 0 2.868-2.421 5.241-5.346 5.241-2.925 0-5.346-2.373-5.346-5.242 0-2.967 2.421-5.241 5.346-5.241Z" fill="#63D1BB"/></svg>
